color-images/noun_project_454y.svg

<?xml version="1.0" encoding="UTF-8" standalone="no"?>
<!-- Created with Inkscape (http://www.inkscape.org/) -->

<svg
   xmlns:dc="http://purl.org/dc/elements/1.1/"
   xmlns:cc="http://creativecommons.org/ns#"
   xmlns:rdf="http://www.w3.org/1999/02/22-rdf-syntax-ns#"
   xmlns:svg="http://www.w3.org/2000/svg"
   xmlns="http://www.w3.org/2000/svg"
   version="1.0"
   width="100"
   height="100"
   viewBox="0 0 100 100"
   id="Layer_1"
   xml:space="preserve"><metadata
   id="metadata6860"><rdf:RDF><cc:Work
       rdf:about=""><dc:format>image/svg+xml</dc:format><dc:type
         rdf:resource="http://purl.org/dc/dcmitype/StillImage" /><dc:title></dc:title></cc:Work></rdf:RDF></metadata><defs
   id="defs6858" />
<path
   d="M 41.464,0 H 5.614 C 2.514,0 0,2.513 0,5.614 v 35.85 c 0,3.1 2.514,5.614 5.614,5.614 h 35.85 c 3.101,0 5.613,-2.514 5.613,-5.614 V 5.614 C 47.077,2.513 44.564,0 41.464,0 z m -30.26,6.588 c 2.549,0 4.615,2.066 4.615,4.615 0,2.549 -2.066,4.615 -4.615,4.615 -2.549,0 -4.615,-2.066 -4.615,-4.615 0,-2.549 2.066,-4.615 4.615,-4.615 z m 0,33.9 c -2.549,0 -4.615,-2.066 -4.615,-4.615 0,-2.549 2.066,-4.615 4.615,-4.615 2.549,0 4.615,2.066 4.615,4.615 0,2.549 -2.066,4.615 -4.615,4.615 z M 23.539,28.154 c -2.549,0 -4.615,-2.066 -4.615,-4.615 0,-2.549 2.066,-4.615 4.615,-4.615 2.549,0 4.615,2.066 4.615,4.615 0,2.549 -2.066,4.615 -4.615,4.615 z m 12.335,12.334 c -2.55,0 -4.615,-2.066 -4.615,-4.615 0,-2.549 2.065,-4.615 4.615,-4.615 2.549,0 4.614,2.066 4.614,4.615 0,2.549 -2.065,4.615 -4.614,4.615 z m 0,-24.669 c -2.55,0 -4.615,-2.066 -4.615,-4.615 0,-2.549 2.065,-4.615 4.615,-4.615 2.549,0 4.614,2.066 4.614,4.615 0,2.549 -2.065,4.615 -4.614,4.615 z"
   id="path6852"
   style="fill:#907000;fill-opacity:1" />
<path
   d="M 98.356,65.067 73.006,39.718 c -2.192,-2.193 -5.747,-2.193 -7.939,0 l -25.35,25.35 c -2.192,2.192 -2.192,5.747 0,7.939 l 25.35,25.35 c 2.192,2.191 5.747,2.191 7.939,0 l 25.35,-25.35 c 2.192,-2.193 2.192,-5.748 0,-7.94 z M 72.301,48.329 c 1.802,1.802 1.802,4.724 0,6.527 -1.803,1.802 -4.725,1.802 -6.527,0 -1.803,-1.803 -1.803,-4.725 0,-6.527 1.803,-1.802 4.724,-1.802 6.527,0 z M 48.33,72.3 c -1.803,-1.803 -1.803,-4.725 0,-6.527 1.802,-1.802 4.724,-1.802 6.526,0 1.802,1.803 1.802,4.725 0,6.527 -1.802,1.802 -4.724,1.802 -6.526,0 z m 17.443,-10e-4 c -1.803,-1.802 -1.803,-4.724 0,-6.526 1.803,-1.802 4.725,-1.802 6.527,0 1.802,1.803 1.802,4.725 0,6.526 -1.802,1.803 -4.724,1.803 -6.527,0 z m 0,17.445 c -1.803,-1.802 -1.803,-4.725 0,-6.526 1.803,-1.803 4.725,-1.803 6.527,0 1.802,1.802 1.802,4.725 0,6.526 -1.802,1.802 -4.724,1.802 -6.527,0 z M 83.218,72.299 c -1.803,-1.802 -1.803,-4.724 0,-6.526 1.802,-1.802 4.725,-1.802 6.526,0 1.803,1.803 1.803,4.725 0,6.526 -1.802,1.803 -4.724,1.803 -6.526,0 z"
   id="path6854"
   style="fill:#907000;fill-opacity:1" />
</svg>

<?xml version="1.0" encoding="utf-8"?>
<!-- Generator: Adobe Illustrator 14.0.0, SVG Export Plug-In . SVG Version: 6.00 Build 43363)  -->
<!DOCTYPE svg PUBLIC "-//W3C//DTD SVG 1.0//EN" "http://www.w3.org/TR/2001/REC-SVG-20010904/DTD/svg10.dtd">
<svg version="1.0" id="Layer_1" xmlns="http://www.w3.org/2000/svg" xmlns:xlink="http://www.w3.org/1999/xlink" x="0px" y="0px"
	 width="100px" height="100px" viewBox="0 0 100 100" enable-background="new 0 0 100 100" xml:space="preserve">
<path d="M41.464,0H5.614C2.514,0,0,2.513,0,5.614v35.85c0,3.1,2.514,5.614,5.614,5.614h35.85c3.101,0,5.613-2.514,5.613-5.614V5.614
	C47.077,2.513,44.564,0,41.464,0z M11.204,6.588c2.549,0,4.615,2.066,4.615,4.615s-2.066,4.615-4.615,4.615
	s-4.615-2.066-4.615-4.615S8.655,6.588,11.204,6.588z M11.204,40.488c-2.549,0-4.615-2.066-4.615-4.615
	c0-2.549,2.066-4.615,4.615-4.615s4.615,2.066,4.615,4.615C15.819,38.422,13.753,40.488,11.204,40.488z M23.539,28.154
	c-2.549,0-4.615-2.066-4.615-4.615s2.066-4.615,4.615-4.615s4.615,2.066,4.615,4.615S26.088,28.154,23.539,28.154z M35.874,40.488
	c-2.55,0-4.615-2.066-4.615-4.615c0-2.549,2.065-4.615,4.615-4.615c2.549,0,4.614,2.066,4.614,4.615
	C40.488,38.422,38.423,40.488,35.874,40.488z M35.874,15.819c-2.55,0-4.615-2.066-4.615-4.615s2.065-4.615,4.615-4.615
	c2.549,0,4.614,2.066,4.614,4.615S38.423,15.819,35.874,15.819z"
   style="fill:#ffc000;fill-opacity:1" />
<path d="M98.356,65.067l-25.35-25.349c-2.192-2.193-5.747-2.193-7.939,0l-25.35,25.35c-2.192,2.192-2.192,5.747,0,7.939l25.35,25.35
	c2.192,2.191,5.747,2.191,7.939,0l25.35-25.35C100.548,70.814,100.548,67.259,98.356,65.067z M72.301,48.329
	c1.802,1.802,1.802,4.724,0,6.527c-1.803,1.802-4.725,1.802-6.527,0c-1.803-1.803-1.803-4.725,0-6.527S70.498,46.527,72.301,48.329z
	 M48.33,72.3c-1.803-1.803-1.803-4.725,0-6.527c1.802-1.802,4.724-1.802,6.526,0c1.802,1.803,1.802,4.725,0,6.527
	C53.054,74.102,50.132,74.102,48.33,72.3z M65.773,72.299c-1.803-1.802-1.803-4.724,0-6.526c1.803-1.802,4.725-1.802,6.527,0
	c1.802,1.803,1.802,4.725,0,6.526C70.498,74.102,67.576,74.102,65.773,72.299z M65.773,89.744c-1.803-1.802-1.803-4.725,0-6.526
	c1.803-1.803,4.725-1.803,6.527,0c1.802,1.802,1.802,4.725,0,6.526C70.498,91.546,67.576,91.546,65.773,89.744z M83.218,72.299
	c-1.803-1.802-1.803-4.724,0-6.526c1.802-1.802,4.725-1.802,6.526,0c1.803,1.803,1.803,4.725,0,6.526
	C87.942,74.102,85.02,74.102,83.218,72.299z"
   style="fill:#ffc000;fill-opacity:1" />
</svg>
